svgs/regular/globe-snow.svg

<svg xmlns="http://www.w3.org/2000/svg" viewBox="0 0 448 512"><!-- Font Awesome Pro 6.0.0-alpha2 by @fontawesome - https://fontawesome.com License - https://fontawesome.com/license (Commercial License) --><path d="M232 80C218.75 80 208 90.75 208 104S218.75 128 232 128S256 117.25 256 104S245.25 80 232 80ZM104 160C90.75 160 80 170.75 80 184S90.75 208 104 208S128 197.25 128 184S117.25 160 104 160ZM328 144C314.75 144 304 154.75 304 168S314.75 192 328 192S352 181.25 352 168S341.25 144 328 144ZM363.25 399C414.75 358 448 295 448 224C448 100.25 347.75 0 224 0S0 100.25 0 224C0 295 33.25 358 84.75 399L38.375 460.75C22.625 481.875 37.625 512 64 512H384C410.375 512 425.375 481.875 409.625 460.75L363.25 399ZM296.875 384H256V336H313.875C328.125 336 335.875 321 326.75 311.125L276 256H291.375C302.125 256 307.875 244.75 301.125 237.25L233.75 164.125C228.75 158.625 219.375 158.625 214.375 164.125L147 237.25C140.25 244.75 146 256 156.75 256H172L121.25 311.125C112.25 321 120 336 134.25 336H192V384H151.125C90.375 356.25 48 295 48 224C48 127 127 48 224 48S400 127 400 224C400 295 357.625 356.25 296.875 384Z"/></svg>

<svg xmlns="http://www.w3.org/2000/svg" viewBox="0 0 448 512"><!-- Font Awesome Pro 5.15.1 by @fontawesome - https://fontawesome.com License - https://fontawesome.com/license (Commercial License) --><path d="M232 80c-13.3 0-24 10.7-24 24s10.7 24 24 24 24-10.7 24-24-10.7-24-24-24zm-128 80c-13.3 0-24 10.7-24 24s10.7 24 24 24 24-10.7 24-24-10.7-24-24-24zm224-16c-13.3 0-24 10.7-24 24s10.7 24 24 24 24-10.7 24-24-10.7-24-24-24zm35.3 255c51.5-41 84.7-104 84.7-175C448 100.3 347.7 0 224 0S0 100.3 0 224c0 71 33.2 134 84.7 175l-46.3 61.8C22.6 481.9 37.6 512 64 512h320c26.4 0 41.4-30.1 25.6-51.2L363.3 399zM96 464l24-32h208l24 32H96zm200.9-80H256v-48h57.9c14.2 0 22-15 12.9-24.9L276 256h15.4c10.7 0 16.5-11.2 9.7-18.7l-67.4-73.2c-5-5.5-14.3-5.5-19.3 0L147 237.3c-6.8 7.4-1 18.7 9.7 18.7H172l-50.7 55.1c-9.1 9.9-1.3 24.9 12.9 24.9H192v48h-40.9C90.4 356.2 48 295 48 224c0-97 79-176 176-176s176 79 176 176c0 71-42.4 132.2-103.1 160z"/></svg>
